X:347
T:Reel 347
M:4/4
K:Dmaj
L:1/8
dc|A>D (3DDD AGAG|FDDF BAAc|B>E (3EEE BEEd|BABc dcBG|A>D (3DDD ADFA|Adcd BAGF|GABc dBAG|FDEC D2|FG|Addc d2cd|ecde cAAF|GEEF GEEG|BE (3EEE B2cB|Addc d2cd|eddc d2df|gefd ceed|cAGE D2|
